X: 46
T:There's nae luck about the house. WCa.46
M:2/4
Q:100
C:"Wm Calvert"
S:Wm. Calvert MS, 1812, Leyburn, Yorks.
R:Country dance
O:England
A:North Yorkshire
Z:vmp.Chris Partington, May 2003
K:D
B|dBAF|GGGB|dBAF|E2zB|\
dBAF|GGGB|AGFE|D2z::!
E|F2FD|GFGF|F2FD|E2zA|\
FFFD|GGGB|AGFE|D2z:||
